X:192
T:Yidl mitn fidl
O:klezmer
M:2/4
L:1/8
Q:1/4=
K:Cm
V:1
"Cm" CE GE |"Fm" F2 F2 |"Cm" CE GF/E/ |"Fm" F3 F|
"Bb" B G/G/F G|"Eb" G2 "Ab" C2 |"Fm" FF "G7" FE/D/ |"Cm" C3 G|
c cc c|c c3 |"Ab" cc "D7" cc |"G" G2 z2  |:
"Cm" cG cG |c3/2 d/4c/4B=A |"Gm" B/=A/G GG |"G7" G3 G|
"Cm" ^F Gc G|^F2 E/D/C |"Fm" =E/G/F FF |Fz "D7" ^F2 |
"G" GG GG |GG GG |"G7" GF ED |"Cm" C2 z2 :|
V:2          %2e stem
z2 |  |(C2 C)B, |G,2 G,2 |
C3 B,|G,3 C|D3 F|E4 |
G,2 G,=B, |C4 |zE zE |zE zG |
G2 ^F2 |.=B=A GF  |:E2 D2 |CD E^F |
.G2 zE |DC =B,2 |C2 .G.E |D2 .C.B, |
G,2 .B,.G, |G,z =A,2 |z.=B, z.D |z.=B, z.D |
[FD][GD][=AC][=B=B,]|[c2G,2]z2 :|





